X:59
T: TURNER AUF ZUM STREITE
N: B0545
O: Europa, Mitteleuropa, Deutschland
R: Turner - Lied
M: 4/4
L: 1/8
K: Bb
 | B2A2B2dc | B4F2z2
F3BA2B2 | c6z2
d3cB2A2 | G6A2
c3BA2G2 | F8
G3GG2A2 | B8
B3cc3d | d8
B2F2B2d2 | f4
B2e2 | d4c4 | B6z2

